icons/chat-discuss.svg

<svg width="24" height="24" viewBox="0 0 24 24" fill="none" xmlns="http://www.w3.org/2000/svg">
<path fill-rule="evenodd" clip-rule="evenodd" d="M1 3C1 2.44772 1.44772 2 2 2H18.5C19.0523 2 19.5 2.44772 19.5 3C19.5 3.55228 19.0523 4 18.5 4H3V14C3 14.5523 2.55228 15 2 15C1.44772 15 1 14.5523 1 14V3ZM5 7C5 6.44772 5.44772 6 6 6H22C22.5523 6 23 6.44772 23 7V18C23 18.5523 22.5523 19 22 19H16.9684L14.7682 21.6402C14.5782 21.8682 14.2968 22 14 22C13.7032 22 13.4218 21.8682 13.2318 21.6402L11.0316 19H6C5.44772 19 5 18.5523 5 18V7ZM7 8V17H11.5C11.7968 17 12.0782 17.1318 12.2682 17.3598L14 19.438L15.7318 17.3598C15.9218 17.1318 16.2032 17 16.5 17H21V8H7Z" fill="black"/>
</svg>

<svg
  width="24"
  height="24"
  viewBox="0 0 24 24"
  xmlns="http://www.w3.org/2000/svg"
>
  <path
    fill-rule="evenodd"
    clip-rule="evenodd"
    d="M1 3a1 1 0 0 1 1-1h16.5a1 1 0 1 1 0 2H3v10a1 1 0 1 1-2 0V3zm4 4a1 1 0 0 1 1-1h16a1 1 0 0 1 1 1v11a1 1 0 0 1-1 1h-5.032l-2.2 2.64a1 1 0 0 1-1.536 0l-2.2-2.64H6a1 1 0 0 1-1-1V7zm2 1v9h4.5a1 1 0 0 1 .768.36L14 19.438l1.732-2.078A1 1 0 0 1 16.5 17H21V8H7z"
  />
</svg>
